!!!OTL: Bundestreue.
!!!OTL-incipit: AUF SCHWAERMT UND TRINKT
!!!COM: Studentenweise
!!!ARE: Europa, Mitteleuropa, Deutschland
!!!SCT: F0507
!!!TXL: @@DE
!!!YEM: Copyright 1995, estate of Helmut Schaffrath.
**kern	**text
*ICvox	*
*clefG2	*
*M4/4	*
*met(c)	*
*k[f#c#]	*
*D:	*
!LO:TX:a:t=Heiter.	!
!LO:TX:a:t=P:only the highest voice encoded:problem	!
{8a	1._Auf,
8f#	ſchwärmt
8g	und
=1	=1
4.a	trinkt,
8a	ge-
4.ff#	-lieb-
8dd	-te
=2	=2
4cc#/	Brüder!
4dd/	.
8r}	.
{8dd/	wir
8cc#/	ſind
8dd/	uns
=3	=3
4.ee	al-
8cc#/	-le
8b/L	herʒ-
8aJ	.
8b/L	-lich
8cc#J	.
=4	=4
2a	freund,
8r}	.
{8a	ſind
8e	ei-
8f#	-nes
=5	=5
4.g	gro-
8g	-ßen
8gL	Bun-
8bJ	.
8aL	-des
8gJ	.
=6	=6
8gL	Glie-
8f#J	.
4f#	-der,
8r}	.
{8f#	im
8e	Le-
8f#	-ben
=7	=7
4.g	wie
8g	im
8gL	Tod
8bJ	.
8aL	ver-
8gJ	.
=8	=8
(>4g	-eint,
4f#)	.
8r}	.
{8a	und
8a	trotʒ
8a	der
=9	=9
4.ff#	Ʒei-
8dd	-ten
4.ee	Nacht
8cc#	und
=10	=10
2dd	Graus,
8r}	.
{8dd	wir
8cc#	hal-
8b/	-ten
=11	=11
4.a	treu
8a	und
(>4a	red-
8b/)	.
8cc#/	-lich
=12	=12
2dd/	aus.
8r}	.
{8a	und
8a	trotʒ
8a	der
=13	=13
4.ff#	Ʒei-
8dd	-ten
4.ee	Nacht
8cc#	und
=14	=14
2dd	Graus,
8r}	.
{8dd	wir
8cc#	hal-
8b/	-ten
=15	=15
4.a	treu
8a	und
(>4a	red-
8b/)	.
8cc#/	-lich
=16	=16
2dd/	aus.
8r}	.
==	==
!!!AGN: Studenten -, Trink - Lied
!!!ONB: ESAC (Essen Associative Code) Database: FINK
!!!AMT: simple quadruple
!!!AIN: vox
!!!EED: Helmut Schaffrath
!!!EEV: 1.0
!!!RDF**kern: > = above
!!!GTL: Studentenlieder
!!Text: Th. Koerner (1810)
!!!source: Musikalischer Hausschatz der Deutschen. Eine Sammlung von über 1000 Liedern und Gesängen mit Singstimmen und Klavierbegleitung. Leipzig, Litterarisches Verlags-Haus.
!!!page: 321
!!!URL-scan: https://www.digitale-sammlungen.de/en/view/bsb11144622?page=298
!!!ENC: Anna Maria Matuszewska
!!!EEV: 2024/01/08
*-	*-